src/icons/svg/ChatAvailable.svg

<!-- Generated by IcoMoon.io -->
<svg version="1.1" xmlns="http://www.w3.org/2000/svg" width="24" height="24" viewBox="0 0 24 24">
<title>chat-available</title>
<path fill="#444" d="M19.488 0h-14.976c-2.496 0-4.512 2.016-4.512 4.608v9.792c0 2.496 2.016 3.84 4.512 3.84h9.12l6.624 5.76v-5.76c2.208-0.192 3.84-1.44 3.84-3.744v-9.888c-0.096-2.592-2.112-4.608-4.608-4.608zM6.24 10.56c-0.768 0-1.44-0.672-1.44-1.44 0-0.864 0.672-1.44 1.44-1.44s1.44 0.576 1.44 1.44c0 0.768-0.672 1.44-1.44 1.44zM12 10.56c-0.768 0-1.44-0.672-1.44-1.44 0-0.864 0.672-1.44 1.44-1.44s1.44 0.576 1.44 1.44c0 0.768-0.672 1.44-1.44 1.44zM17.76 10.56c-0.768 0-1.44-0.672-1.44-1.44 0-0.864 0.672-1.44 1.44-1.44s1.44 0.576 1.44 1.44c0 0.768-0.672 1.44-1.44 1.44z"></path>
</svg>

<svg width="24" height="24" viewBox="0 0 24 24" fill="none" xmlns="http://www.w3.org/2000/svg">
<g clip-path="url(#clip0)">
<path d="M19.488 0H4.512C2.016 0 0 2.016 0 4.608V14.4C0 16.896 2.016 18.24 4.512 18.24H13.632L20.256 24V18.24C22.464 18.048 24.096 16.8 24.096 14.496V4.608C24 2.016 21.984 0 19.488 0V0ZM6.24 10.56C5.472 10.56 4.8 9.888 4.8 9.12C4.8 8.256 5.472 7.68 6.24 7.68C7.008 7.68 7.68 8.256 7.68 9.12C7.68 9.888 7.008 10.56 6.24 10.56ZM12 10.56C11.232 10.56 10.56 9.888 10.56 9.12C10.56 8.256 11.232 7.68 12 7.68C12.768 7.68 13.44 8.256 13.44 9.12C13.44 9.888 12.768 10.56 12 10.56ZM17.76 10.56C16.992 10.56 16.32 9.888 16.32 9.12C16.32 8.256 16.992 7.68 17.76 7.68C18.528 7.68 19.2 8.256 19.2 9.12C19.2 9.888 18.528 10.56 17.76 10.56Z" fill="#1C2125"/>
</g>
<defs>
<clipPath id="clip0">
<rect width="24" height="24" fill="white"/>
</clipPath>
</defs>
</svg>
